X:74
T:Molloy's Reel
M:4/4
L:1/8
K:G
G|A2 eA BAeA|Bdgd BAGB|A2 eA BAeA|1BAGB A3 G:|2BAGB A3 g||ae e2 agef|gB
B2 gfgb|ae e2 aged|BAGA BAAg|ae e2 agef|gB B2 gfgb|afge fded|BAGA BAA ||
